src/public/img/icons/external-link.svg

<svg width="20" height="20" viewBox="0 0 20 20" fill="none" xmlns="http://www.w3.org/2000/svg">
<path d="M7.25 2.75H4.75C3.64543 2.75 2.75 3.64543 2.75 4.75V15.25C2.75 16.3546 3.64543 17.25 4.75 17.25H15.25C16.3546 17.25 17.25 16.3546 17.25 15.25V12.75" stroke="#111A2C" stroke-width="1.5" stroke-linecap="round" stroke-linejoin="round"/>
<path d="M17.25 7.25V2.75H12.75" stroke="#111A2C" stroke-width="1.5" stroke-linecap="round" stroke-linejoin="round"/>
<path d="M17 3L9.75 10.25" stroke="#111A2C" stroke-width="1.5" stroke-linecap="round" stroke-linejoin="round"/>
</svg>

<svg xmlns="http://www.w3.org/2000/svg" width="20" height="20" fill="none">
  <path stroke="#111A2C" stroke-linecap="round" stroke-linejoin="round" stroke-width="1.5" d="M7.25 2.75h-2.5a2 2 0 0 0-2 2v10.5a2 2 0 0 0 2 2h10.5a2 2 0 0 0 2-2v-2.5m0-5.5v-4.5h-4.5M17 3l-7.25 7.25"/>
</svg>
